X:313
T:Unknown Polka 2
M:2/4
L:1/16
R:Polka
Z:m euritt
K:G
d|D3E G2B2|D3E G2BA|G2E2 E2DE|G2E2 E2d2|\
D3E G2B2|D3E G2BA|G2E2 F2G2|1 A2G2 G4:|2 A2G2G4||\
ABd2 B2B2|ABd2 B2B2|ABG2 E2E2|DEG2 E2E2|\
ABd2 B2B2|ABd2 B2B2|ABG2 E2F2|G2A2 GG3:|
